app/style/icons/ticket-lifecycle.svg

<svg viewBox="4973.503 1371.596 20.497 19.152" xmlns="http://www.w3.org/2000/svg"><path d="m47.9 1.113a1.112 1.112 0 0 0 1.113-1.113h1.293a1.113 1.113 0 0 0 2.226 0h1.293a1.113 1.113 0 1 0 2.226 0h1.293a1.113 1.113 0 1 0 2.226 0h1.27a1.112 1.112 0 0 0 1.113 1.113l.635 8.042h-11.913z" fill="#2971ff" transform="translate(4929.359 1371.596)"/><path d="m47.9 1.113 2.775 8.042h11v-8.042a1.112 1.112 0 0 1 -1.108-1.113h-1.019a1.112 1.112 0 0 1 -1.113 1.113 1.274 1.274 0 0 0 -.282 0 1.112 1.112 0 0 1 -1.114-1.113h-1.019a1.112 1.112 0 0 1 -1.113 1.113 1.274 1.274 0 0 0 -.282 0 1.112 1.112 0 0 1 -1.113-1.113h-1.019a1.112 1.112 0 0 1 -1.113 1.113 1.274 1.274 0 0 0 -.282 0 1.11 1.11 0 0 1 -1.074-1.113h-1.019a1.106 1.106 0 0 1 -1.105 1.113z" opacity=".39" transform="translate(4929.359 1371.596)"/><g fill="#2ed6a1"><path d="m66.692 181a1.936 1.936 0 0 0 -1.771.431 2.582 2.582 0 0 0 -.564 1.536c-.031.251-.039.509-.055.76a4.117 4.117 0 0 1 -.071.611l-.047.165c-.039.118.031-.086-.016.031a.5.5 0 0 1 -.063.11c.078-.118 0 .008-.031.024-.031.031-.024.016.031-.031a.317.317 0 0 1 -.071.039c.094-.008.039-.008-.031 0 .133-.016-.024 0-.055 0a.744.744 0 0 1 -.157-.016c-.713-.133-1.011.956-.3 1.09a1.44 1.44 0 0 0 1.56-.509 2.943 2.943 0 0 0 .368-1.458 4.892 4.892 0 0 1 .18-1.38c.008-.016-.016.024.031-.071a1.1 1.1 0 0 1 .078-.125c-.071.094.016-.008.039-.031.078-.071-.063.031.055-.039s-.031 0 .071-.031a1.25 1.25 0 0 1 .165-.039 3.138 3.138 0 0 1 .337.016.576.576 0 0 0 .69-.392.546.546 0 0 0 -.376-.69z" transform="translate(4915.364 1204.818)"/><path d="m155.539 179.511c.87 1.2.047 3.935 2.054 4.319.713.133 1.011-.956.3-1.09-.588-.11-.666-.956-.76-1.552a5.085 5.085 0 0 0 -.619-2.25c-.423-.58-1.4-.016-.972.572z" transform="translate(4830.256 1206.906)"/><path d="m54.854 11.906v-10.793a1.111 1.111 0 0 1 -1.105-1.113h-1.294a1.113 1.113 0 0 1 -2.226 0h-1.293a1.113 1.113 0 1 1 -2.226 0h-1.285a1.112 1.112 0 0 1 -1.113 1.113 1.106 1.106 0 0 1 -1.106-1.113h-1.293a1.112 1.112 0 0 1 -1.113 1.113v14.516h12.141l1.659-1.254z" transform="translate(4935.903 1371.596)"/></g><path d="m89.065 59.933a.933.933 0 1 1 -.94-.933.93.93 0 0 1 .94.933z" transform="translate(4893.14 1317.22)"/><path d="m102.386 64.043a.243.243 0 1 1 -.243-.243.239.239 0 0 1 .243.243z" fill="#fff" transform="translate(4879.592 1312.796)"/><path d="m102.657 69.678a.079.079 0 0 1 -.078.078.078.078 0 1 1 .078-.078z" fill="#fff" transform="translate(4879.039 1307.451)"/><path d="m150.866 59.031a.933.933 0 1 1 -.933-.933.93.93 0 0 1 .933.933z" transform="translate(4836.184 1318.051)"/><path d="m164.286 63.138a.243.243 0 1 1 -.243-.243.235.235 0 0 1 .243.243z" fill="#fff" transform="translate(4822.544 1313.631)"/><path d="m164.557 68.778a.074.074 0 0 1 -.078.078.079.079 0 0 1 -.078-.078.078.078 0 1 1 .157 0z" fill="#fff" transform="translate(4821.991 1308.281)"/><path d="m197.354 154.361.259-2.461-1.913 3.715z" opacity=".2" transform="translate(4793.144 1231.602)"/><path d="m93.1 97.7a1.761 1.761 0 1 1 -1.787-1.246 1.564 1.564 0 0 1 1.787 1.246z" opacity=".39" transform="translate(4890.854 1282.703)"/><path d="m91.5 96.3a1.761 1.761 0 1 1 -1.787-1.246 1.564 1.564 0 0 1 1.787 1.246z" fill="#2971ff" transform="translate(4892.328 1283.993)"/><path d="m91.5 96.3a1.761 1.761 0 1 1 -1.787-1.246 1.564 1.564 0 0 1 1.787 1.246z" fill="#fff" opacity=".2" transform="translate(4892.328 1283.993)"/><path d="m102.564 104.535a.691.691 0 1 1 -.729-.651.687.687 0 0 1 .729.651z" fill="#2971ff" transform="translate(4880.253 1275.855)"/><path d="m102.564 104.535a.691.691 0 1 1 -.729-.651.687.687 0 0 1 .729.651z" opacity=".39" transform="translate(4880.253 1275.855)"/><path d="m101.564 103.735a.691.691 0 1 1 -.729-.651.687.687 0 0 1 .729.651z" fill="#2971ff" transform="translate(4881.175 1276.592)"/><path d="m94.552 110.427a1.333 1.333 0 1 1 1.129-1.4 1.287 1.287 0 0 1 -1.129 1.4zm-.133-2.2a.885.885 0 1 0 .807.831.829.829 0 0 0 -.807-.831z" fill="#2971ff" transform="translate(4887.543 1272.268)"/><path d="m94.552 110.427a1.333 1.333 0 1 1 1.129-1.4 1.287 1.287 0 0 1 -1.129 1.4zm-.133-2.2a.885.885 0 1 0 .807.831.829.829 0 0 0 -.807-.831z" opacity=".15" transform="translate(4887.543 1272.268)"/><path d="m143.135 103.388c-.815.078-1.45 1.184-.752 1.8.18.165.447-.1.267-.267-.431-.384-.031-1.113.486-1.168.243-.016.243-.392 0-.368z" fill="#231f20" opacity=".1" transform="translate(4842.559 1276.313)"/><g fill="#2ed6a1"><path d="m3.457 51.69c-.972-.1-1.944-.274-2.931-.29a.565.565 0 0 0 -.008 1.129c.988.008 1.96.18 2.931.282.721.078.729-1.05.008-1.121z" transform="translate(4973.528 1324.226)"/><path d="m207.155 50.028a18.62 18.62 0 0 1 3.08-1.074.564.564 0 0 0 -.29-1.09 20.325 20.325 0 0 0 -3.355 1.191.562.562 0 1 0 .564.972z" transform="translate(4783.358 1327.502)"/></g></svg>

<svg xmlns="http://www.w3.org/2000/svg" viewBox="4973.503 1371.596 20.497 19.152"><defs><style>.a{fill:#2971ff;}.b{opacity:0.39;}.c{fill:#2ed6a1;}.d,.f{fill:#fff;}.e,.f{opacity:0.2;}.g{opacity:0.15;}.h{opacity:0.1;}.i{fill:#231f20;}</style></defs><g transform="translate(4196 850)"><path class="a" d="M47.9,1.113A1.112,1.112,0,0,0,49.013,0h1.293a1.113,1.113,0,0,0,2.226,0h1.293a1.113,1.113,0,1,0,2.226,0h1.293a1.113,1.113,0,1,0,2.226,0h1.27a1.112,1.112,0,0,0,1.113,1.113l.635,8.042H50.675Z" transform="translate(733.359 521.596)"/><path class="b" d="M47.9,1.113l2.775,8.042h11V1.113A1.112,1.112,0,0,1,60.567,0H59.548a1.112,1.112,0,0,1-1.113,1.113,1.274,1.274,0,0,0-.282,0A1.112,1.112,0,0,1,57.039,0H56.02a1.112,1.112,0,0,1-1.113,1.113,1.274,1.274,0,0,0-.282,0A1.112,1.112,0,0,1,53.512,0H52.493A1.112,1.112,0,0,1,51.38,1.113a1.274,1.274,0,0,0-.282,0A1.11,1.11,0,0,1,50.024,0H49.005A1.106,1.106,0,0,1,47.9,1.113Z" transform="translate(733.359 521.596)"/><g transform="translate(782.45 535.78)"><path class="c" d="M66.692,181a1.936,1.936,0,0,0-1.771.431,2.582,2.582,0,0,0-.564,1.536c-.031.251-.039.509-.055.76a4.117,4.117,0,0,1-.071.611l-.047.165c-.039.118.031-.086-.016.031a.5.5,0,0,1-.063.11c.078-.118,0,.008-.031.024-.031.031-.024.016.031-.031a.317.317,0,0,1-.071.039c.094-.008.039-.008-.031,0,.133-.016-.024,0-.055,0a.744.744,0,0,1-.157-.016c-.713-.133-1.011.956-.3,1.09a1.44,1.44,0,0,0,1.56-.509,2.943,2.943,0,0,0,.368-1.458,4.892,4.892,0,0,1,.18-1.38c.008-.016-.016.024.031-.071a1.1,1.1,0,0,1,.078-.125c-.071.094.016-.008.039-.031.078-.071-.063.031.055-.039s-.031,0,.071-.031a1.25,1.25,0,0,1,.165-.039,3.138,3.138,0,0,1,.337.016.576.576,0,0,0,.69-.392.546.546,0,0,0-.376-.69Z" transform="translate(-63.086 -180.962)"/></g><g transform="translate(789.688 535.602)"><path class="c" d="M155.539,179.511c.87,1.2.047,3.935,2.054,4.319.713.133,1.011-.956.3-1.09-.588-.11-.666-.956-.76-1.552a5.085,5.085,0,0,0-.619-2.25c-.423-.58-1.4-.016-.972.572Z" transform="translate(-155.432 -178.696)"/></g><path class="c" d="M54.854,11.906V1.113A1.111,1.111,0,0,1,53.749,0H52.455a1.113,1.113,0,0,1-2.226,0H48.936A1.113,1.113,0,1,1,46.71,0H45.425a1.112,1.112,0,0,1-1.113,1.113A1.106,1.106,0,0,1,43.206,0H41.913A1.112,1.112,0,0,1,40.8,1.113V15.629H52.941L54.6,14.375Z" transform="translate(739.903 521.596)"/><g transform="translate(784.34 526.22)"><path d="M89.065,59.933A.933.933,0,1,1,88.125,59,.93.93,0,0,1,89.065,59.933Z" transform="translate(-87.2 -59)"/><path class="d" d="M102.386,64.043a.243.243,0,1,1-.243-.243A.239.239,0,0,1,102.386,64.043Z" transform="translate(-100.748 -63.424)"/><path class="d" d="M102.657,69.678a.079.079,0,0,1-.078.078.078.078,0,1,1,.078-.078Z" transform="translate(-101.301 -68.769)"/></g><g transform="translate(789.184 526.15)"><path d="M150.866,59.031a.933.933,0,1,1-.933-.933A.93.93,0,0,1,150.866,59.031Z" transform="translate(-149 -58.099)"/><path class="d" d="M164.286,63.138a.243.243,0,1,1-.243-.243A.235.235,0,0,1,164.286,63.138Z" transform="translate(-162.64 -62.519)"/><path class="d" d="M164.557,68.778a.074.074,0,0,1-.078.078.079.079,0,0,1-.078-.078.078.078,0,1,1,.157,0Z" transform="translate(-163.193 -67.869)"/></g><path class="e" d="M197.354,154.361l.259-2.461-1.913,3.715Z" transform="translate(597.144 381.602)"/><g transform="translate(784.409 529.046)"><path class="b" d="M93.1,97.7a1.761,1.761,0,1,1-1.787-1.246A1.564,1.564,0,0,1,93.1,97.7Z" transform="translate(-89.555 -96.343)"/><path class="a" d="M91.5,96.3a1.761,1.761,0,1,1-1.787-1.246A1.564,1.564,0,0,1,91.5,96.3Z" transform="translate(-88.081 -95.053)"/><path class="f" d="M91.5,96.3a1.761,1.761,0,1,1-1.787-1.246A1.564,1.564,0,0,1,91.5,96.3Z" transform="translate(-88.081 -95.053)"/><path class="a" d="M102.564,104.535a.691.691,0,1,1-.729-.651A.687.687,0,0,1,102.564,104.535Z" transform="translate(-100.156 -103.191)"/><path class="b" d="M102.564,104.535a.691.691,0,1,1-.729-.651A.687.687,0,0,1,102.564,104.535Z" transform="translate(-100.156 -103.191)"/><path class="a" d="M101.564,103.735a.691.691,0,1,1-.729-.651A.687.687,0,0,1,101.564,103.735Z" transform="translate(-99.234 -102.454)"/><g transform="translate(0.407 0.997)"><path class="a" d="M94.552,110.427a1.333,1.333,0,1,1,1.129-1.4,1.287,1.287,0,0,1-1.129,1.4Zm-.133-2.2a.885.885,0,1,0,.807.831.829.829,0,0,0-.807-.831Z" transform="translate(-93.273 -107.775)"/></g><g class="g" transform="translate(0.407 0.997)"><path d="M94.552,110.427a1.333,1.333,0,1,1,1.129-1.4,1.287,1.287,0,0,1-1.129,1.4Zm-.133-2.2a.885.885,0,1,0,.807.831.829.829,0,0,0-.807-.831Z" transform="translate(-93.273 -107.775)"/></g></g><g class="h" transform="translate(788.642 529.699)"><path class="i" d="M143.135,103.388c-.815.078-1.45,1.184-.752,1.8.18.165.447-.1.267-.267-.431-.384-.031-1.113.486-1.168.243-.016.243-.392,0-.368Z" transform="translate(-142.083 -103.386)"/></g><g transform="translate(777.503 525.625)"><g transform="translate(0)"><path class="c" d="M3.457,51.69c-.972-.1-1.944-.274-2.931-.29a.565.565,0,0,0-.008,1.129c.988.008,1.96.18,2.931.282.721.078.729-1.05.008-1.121Z" transform="translate(0.025 -51.399)"/></g></g><g transform="translate(793.676 525.346)"><path class="c" d="M207.155,50.028a18.62,18.62,0,0,1,3.08-1.074.564.564,0,0,0-.29-1.09,20.325,20.325,0,0,0-3.355,1.191.562.562,0,1,0,.564.972Z" transform="translate(-206.318 -47.844)"/></g></g></svg>
